assets/svgs/green-energy-color/GreenEnergyColor16.svg

<svg xmlns="http://www.w3.org/2000/svg" data-name="Layer 1" viewBox="0 0 128 128"><path fill="#469612" d="M64 14.973s-30.713 49-30.713 67.289a30.713 30.713 0 0061.427 0C94.713 63.974 64 14.973 64 14.973z"/><path fill="#7ece29" d="M69.912 48.107L51.27 77.978h10.023l-3.208 22.051L76.73 69.957H66.706l3.206-21.85z"/><path fill="#001b01" d="M64 114.614a32.389 32.389 0 0032.352-32.352c0-18.546-29.7-66.142-30.964-68.159a1.7 1.7 0 00-2.777 0c-1.264 2.017-30.963 49.613-30.963 68.159A32.389 32.389 0 0064 114.614zM64 18.1c5.965 9.8 29.074 48.745 29.074 64.16a29.074 29.074 0 11-58.148 0C34.926 66.847 58.035 27.9 64 18.1z"/><path fill="#001b01" d="M51.27 79.617h8.13l-2.937 20.176a1.639 1.639 0 003.015 1.1L78.124 70.82a1.639 1.639 0 00-1.394-2.5H68.6l2.931-19.973a1.638 1.638 0 00-3.011-1.105L49.88 77.11a1.639 1.639 0 001.39 2.506zm15.882-23.993l-2.067 14.095a1.638 1.638 0 001.621 1.881h7.079L60.841 92.475l2.074-14.262a1.639 1.639 0 00-1.622-1.875h-7.069z"/></svg>

<svg id="Layer_1" data-name="Layer 1" xmlns="http://www.w3.org/2000/svg" viewBox="0 0 128 128"><title>Artboard 2</title><path d="M64,14.973s-30.713,49-30.713,67.289a30.713,30.713,0,0,0,61.427,0C94.713,63.974,64,14.973,64,14.973Z" style="fill:#469612"/><polygon points="69.912 48.107 51.27 77.978 61.293 77.978 58.085 100.029 76.73 69.957 66.706 69.957 69.912 48.107" style="fill:#7ece29"/><path d="M64,114.614A32.389,32.389,0,0,0,96.352,82.262c0-18.546-29.7-66.142-30.964-68.159a1.7,1.7,0,0,0-2.777,0C61.347,16.12,31.648,63.716,31.648,82.262A32.389,32.389,0,0,0,64,114.614ZM64,18.1c5.965,9.8,29.074,48.745,29.074,64.16a29.074,29.074,0,1,1-58.148,0C34.926,66.847,58.035,27.9,64,18.1Z" style="fill:#001b01"/><path d="M51.27,79.617H59.4L56.463,99.793a1.639,1.639,0,0,0,3.015,1.1L78.124,70.82a1.639,1.639,0,0,0-1.394-2.5H68.6l2.931-19.973a1.638,1.638,0,0,0-3.011-1.105L49.88,77.11a1.639,1.639,0,0,0,1.39,2.506ZM67.152,55.624,65.085,69.719A1.638,1.638,0,0,0,66.706,71.6h7.079L60.841,92.475l2.074-14.262a1.639,1.639,0,0,0-1.622-1.875H54.224Z" style="fill:#001b01"/></svg>
